images/6603731.svg

<?xml version="1.0" encoding="UTF-8"?>
<svg xmlns="http://www.w3.org/2000/svg" xmlns:xlink="http://www.w3.org/1999/xlink" width="300pt" height="300pt" viewBox="0 0 300 300" version="1.1">
<defs>
<g>
<symbol overflow="visible" id="glyph0-0">
<path style="stroke:none;" d="M 0.453125 1.59375 L 0.453125 -6.34375 L 4.953125 -6.34375 L 4.953125 1.59375 Z M 0.953125 1.09375 L 4.453125 1.09375 L 4.453125 -5.84375 L 0.953125 -5.84375 Z M 0.953125 1.09375 "/>
</symbol>
<symbol overflow="visible" id="glyph0-1">
<path style="stroke:none;" d="M 3.546875 -5.953125 C 2.898438 -5.953125 2.382812 -5.710938 2 -5.234375 C 1.625 -4.753906 1.4375 -4.101562 1.4375 -3.28125 C 1.4375 -2.445312 1.625 -1.789062 2 -1.3125 C 2.382812 -0.832031 2.898438 -0.59375 3.546875 -0.59375 C 4.191406 -0.59375 4.703125 -0.832031 5.078125 -1.3125 C 5.453125 -1.789062 5.640625 -2.445312 5.640625 -3.28125 C 5.640625 -4.101562 5.453125 -4.753906 5.078125 -5.234375 C 4.703125 -5.710938 4.191406 -5.953125 3.546875 -5.953125 Z M 3.546875 -6.6875 C 4.460938 -6.6875 5.195312 -6.375 5.75 -5.75 C 6.300781 -5.132812 6.578125 -4.3125 6.578125 -3.28125 C 6.578125 -2.238281 6.300781 -1.410156 5.75 -0.796875 C 5.195312 -0.179688 4.460938 0.125 3.546875 0.125 C 2.617188 0.125 1.878906 -0.179688 1.328125 -0.796875 C 0.773438 -1.410156 0.5 -2.238281 0.5 -3.28125 C 0.5 -4.3125 0.773438 -5.132812 1.328125 -5.75 C 1.878906 -6.375 2.617188 -6.6875 3.546875 -6.6875 Z M 3.546875 -6.6875 "/>
</symbol>
<symbol overflow="visible" id="glyph0-2">
<path style="stroke:none;" d="M 0.890625 -6.5625 L 2.078125 -6.5625 L 4.984375 -1.078125 L 4.984375 -6.5625 L 5.84375 -6.5625 L 5.84375 0 L 4.65625 0 L 1.75 -5.484375 L 1.75 0 L 0.890625 0 Z M 0.890625 -6.5625 "/>
</symbol>
<symbol overflow="visible" id="glyph0-3">
<path style="stroke:none;" d="M 0.890625 -6.5625 L 1.765625 -6.5625 L 1.765625 -3.875 L 5 -3.875 L 5 -6.5625 L 5.890625 -6.5625 L 5.890625 0 L 5 0 L 5 -3.125 L 1.765625 -3.125 L 1.765625 0 L 0.890625 0 Z M 0.890625 -6.5625 "/>
</symbol>
<symbol overflow="visible" id="glyph0-4">
<path style="stroke:none;" d="M 5.796875 -6.0625 L 5.796875 -5.125 C 5.492188 -5.394531 5.171875 -5.597656 4.828125 -5.734375 C 4.492188 -5.878906 4.140625 -5.953125 3.765625 -5.953125 C 3.015625 -5.953125 2.4375 -5.722656 2.03125 -5.265625 C 1.632812 -4.804688 1.4375 -4.144531 1.4375 -3.28125 C 1.4375 -2.414062 1.632812 -1.753906 2.03125 -1.296875 C 2.4375 -0.835938 3.015625 -0.609375 3.765625 -0.609375 C 4.140625 -0.609375 4.492188 -0.675781 4.828125 -0.8125 C 5.171875 -0.945312 5.492188 -1.15625 5.796875 -1.4375 L 5.796875 -0.5 C 5.484375 -0.289062 5.15625 -0.132812 4.8125 -0.03125 C 4.46875 0.0703125 4.097656 0.125 3.703125 0.125 C 2.710938 0.125 1.929688 -0.175781 1.359375 -0.78125 C 0.785156 -1.394531 0.5 -2.226562 0.5 -3.28125 C 0.5 -4.332031 0.785156 -5.160156 1.359375 -5.765625 C 1.929688 -6.378906 2.710938 -6.6875 3.703125 -6.6875 C 4.097656 -6.6875 4.46875 -6.632812 4.8125 -6.53125 C 5.164062 -6.425781 5.492188 -6.269531 5.796875 -6.0625 Z M 5.796875 -6.0625 "/>
</symbol>
<symbol overflow="visible" id="glyph0-5">
<path style="stroke:none;" d="M 0.84375 -6.84375 L 1.65625 -6.84375 L 1.65625 0 L 0.84375 0 Z M 0.84375 -6.84375 "/>
</symbol>
<symbol overflow="visible" id="glyph0-6">
<path style="stroke:none;" d="M 3.078125 -2.46875 C 2.429688 -2.46875 1.976562 -2.394531 1.71875 -2.25 C 1.46875 -2.101562 1.34375 -1.847656 1.34375 -1.484375 C 1.34375 -1.203125 1.4375 -0.972656 1.625 -0.796875 C 1.820312 -0.628906 2.082031 -0.546875 2.40625 -0.546875 C 2.851562 -0.546875 3.210938 -0.703125 3.484375 -1.015625 C 3.753906 -1.335938 3.890625 -1.765625 3.890625 -2.296875 L 3.890625 -2.46875 Z M 4.703125 -2.8125 L 4.703125 0 L 3.890625 0 L 3.890625 -0.75 C 3.703125 -0.445312 3.46875 -0.222656 3.1875 -0.078125 C 2.914062 0.0546875 2.582031 0.125 2.1875 0.125 C 1.6875 0.125 1.285156 -0.015625 0.984375 -0.296875 C 0.691406 -0.578125 0.546875 -0.957031 0.546875 -1.4375 C 0.546875 -1.988281 0.726562 -2.40625 1.09375 -2.6875 C 1.46875 -2.96875 2.019531 -3.109375 2.75 -3.109375 L 3.890625 -3.109375 L 3.890625 -3.1875 C 3.890625 -3.5625 3.765625 -3.847656 3.515625 -4.046875 C 3.273438 -4.253906 2.929688 -4.359375 2.484375 -4.359375 C 2.203125 -4.359375 1.925781 -4.320312 1.65625 -4.25 C 1.394531 -4.1875 1.144531 -4.085938 0.90625 -3.953125 L 0.90625 -4.703125 C 1.195312 -4.816406 1.484375 -4.898438 1.765625 -4.953125 C 2.046875 -5.015625 2.316406 -5.046875 2.578125 -5.046875 C 3.285156 -5.046875 3.816406 -4.859375 4.171875 -4.484375 C 4.523438 -4.117188 4.703125 -3.5625 4.703125 -2.8125 Z M 4.703125 -2.8125 "/>
</symbol>
<symbol overflow="visible" id="glyph1-0">
<path style="stroke:none;" d="M 0.40625 1.421875 L 0.40625 -5.640625 L 4.40625 -5.640625 L 4.40625 1.421875 Z M 0.84375 0.96875 L 3.953125 0.96875 L 3.953125 -5.1875 L 0.84375 -5.1875 Z M 0.84375 0.96875 "/>
</symbol>
<symbol overflow="visible" id="glyph1-1">
<path style="stroke:none;" d="M 0.390625 -2.515625 L 2.5 -2.515625 L 2.5 -1.875 L 0.390625 -1.875 Z M 0.390625 -2.515625 "/>
</symbol>
<symbol overflow="visible" id="glyph1-2">
<path style="stroke:none;" d="M 3.6875 -5.015625 L 3.6875 -2.84375 L 5.859375 -2.84375 L 5.859375 -2.171875 L 3.6875 -2.171875 L 3.6875 0 L 3.03125 0 L 3.03125 -2.171875 L 0.84375 -2.171875 L 0.84375 -2.84375 L 3.03125 -2.84375 L 3.03125 -5.015625 Z M 3.6875 -5.015625 "/>
</symbol>
</g>
</defs>
<g id="surface30157">
<rect x="0" y="0" width="300" height="300" style="fill:rgb(100%,100%,100%);fill-opacity:1;stroke:none;"/>
<path style="fill:none;stroke-width:1;stroke-linecap:butt;stroke-linejoin:miter;stroke:rgb(0%,0%,0%);stroke-opacity:1;stroke-miterlimit:10;" d="M 131.609375 196.042969 L 131.609375 196.042969 M 129.25 197.894531 L 130.027344 198.59375 M 126.890625 199.75 L 128.445312 201.140625 M 124.53125 201.605469 L 126.863281 203.691406 M 122.175781 203.457031 L 125.28125 206.238281 M 119.816406 205.3125 L 123.699219 208.789062 M 117.457031 207.164062 L 122.117188 211.335938 M 115.097656 209.019531 L 120.535156 213.886719 M 114.65625 209.363281 L 120.242188 214.359375 "/>
<path style="fill:none;stroke-width:1.2;stroke-linecap:butt;stroke-linejoin:miter;stroke:rgb(0%,0%,0%);stroke-opacity:1;stroke-miterlimit:10;" d="M 131.609375 196.042969 L 152.390625 200.394531 "/>
<path style="fill:none;stroke-width:1.2;stroke-linecap:butt;stroke-linejoin:miter;stroke:rgb(0%,0%,0%);stroke-opacity:1;stroke-miterlimit:10;" d="M 131.609375 196.042969 L 128.300781 185.957031 "/>
<path style="fill:none;stroke-width:1.2;stroke-linecap:butt;stroke-linejoin:miter;stroke:rgb(0%,0%,100%);stroke-opacity:1;stroke-miterlimit:10;" d="M 128.300781 185.957031 L 124.988281 175.871094 "/>
<path style="fill:none;stroke-width:1.2;stroke-linecap:butt;stroke-linejoin:miter;stroke:rgb(0%,0%,0%);stroke-opacity:1;stroke-miterlimit:10;" d="M 152.390625 200.394531 L 166.550781 184.578125 "/>
<path style="fill:none;stroke-width:1.2;stroke-linecap:butt;stroke-linejoin:miter;stroke:rgb(0%,0%,0%);stroke-opacity:1;stroke-miterlimit:10;" d="M 166.550781 184.578125 L 187.328125 188.929688 "/>
<path style="fill:none;stroke-width:1.2;stroke-linecap:butt;stroke-linejoin:miter;stroke:rgb(0%,0%,0%);stroke-opacity:1;stroke-miterlimit:10;" d="M 169.652344 180.125 L 186.277344 183.605469 "/>
<path style="fill:none;stroke-width:1.2;stroke-linecap:butt;stroke-linejoin:miter;stroke:rgb(0%,0%,0%);stroke-opacity:1;stroke-miterlimit:10;" d="M 159.929688 164.40625 L 166.550781 184.578125 "/>
<path style="fill:none;stroke-width:1.2;stroke-linecap:butt;stroke-linejoin:miter;stroke:rgb(0%,0%,0%);stroke-opacity:1;stroke-miterlimit:10;" d="M 187.328125 188.929688 L 201.488281 173.109375 "/>
<path style="fill:none;stroke-width:1.2;stroke-linecap:butt;stroke-linejoin:miter;stroke:rgb(0%,0%,0%);stroke-opacity:1;stroke-miterlimit:10;" d="M 201.488281 173.109375 L 194.871094 152.9375 "/>
<path style="fill:none;stroke-width:1.2;stroke-linecap:butt;stroke-linejoin:miter;stroke:rgb(0%,0%,0%);stroke-opacity:1;stroke-miterlimit:10;" d="M 196.082031 172.652344 L 190.785156 156.511719 "/>
<path style="fill:none;stroke-width:1.2;stroke-linecap:butt;stroke-linejoin:miter;stroke:rgb(0%,0%,0%);stroke-opacity:1;stroke-miterlimit:10;" d="M 194.871094 152.9375 L 174.089844 148.585938 "/>
<path style="fill:none;stroke-width:1.2;stroke-linecap:butt;stroke-linejoin:miter;stroke:rgb(0%,0%,0%);stroke-opacity:1;stroke-miterlimit:10;" d="M 194.871094 152.9375 L 201.949219 145.027344 "/>
<path style="fill:none;stroke-width:1.2;stroke-linecap:butt;stroke-linejoin:miter;stroke:rgb(100%,0%,0%);stroke-opacity:1;stroke-miterlimit:10;" d="M 201.949219 145.027344 L 209.03125 137.121094 "/>
<path style="fill:none;stroke-width:1.2;stroke-linecap:butt;stroke-linejoin:miter;stroke:rgb(0%,0%,0%);stroke-opacity:1;stroke-miterlimit:10;" d="M 174.089844 148.585938 L 159.929688 164.40625 "/>
<path style="fill:none;stroke-width:1.2;stroke-linecap:butt;stroke-linejoin:miter;stroke:rgb(0%,0%,0%);stroke-opacity:1;stroke-miterlimit:10;" d="M 176.394531 153.5 L 165.066406 166.15625 "/>
<path style="fill:none;stroke-width:1.2;stroke-linecap:butt;stroke-linejoin:miter;stroke:rgb(100%,0%,0%);stroke-opacity:1;stroke-miterlimit:10;" d="M 209.03125 137.121094 L 219.417969 139.296875 "/>
<path style="fill:none;stroke-width:1.2;stroke-linecap:butt;stroke-linejoin:miter;stroke:rgb(0%,0%,0%);stroke-opacity:1;stroke-miterlimit:10;" d="M 219.417969 139.296875 L 229.808594 141.472656 "/>
<path style=" stroke:none;fill-rule:nonzero;fill:rgb(100%,100%,100%);fill-opacity:1;" d="M 205.03125 131.621094 L 213.03125 131.621094 L 213.03125 142.621094 L 205.03125 142.621094 Z M 205.03125 131.621094 "/>
<g style="fill:rgb(100%,0%,0%);fill-opacity:1;">
  <use xlink:href="#glyph0-1" x="205.03125" y="140.28418"/>
</g>
<path style="fill:none;stroke-width:1.2;stroke-linecap:butt;stroke-linejoin:miter;stroke:rgb(0%,0%,0%);stroke-opacity:1;stroke-miterlimit:10;" d="M 229.808594 141.472656 L 243.96875 125.652344 "/>
<path style="fill:none;stroke-width:1.2;stroke-linecap:butt;stroke-linejoin:miter;stroke:rgb(0%,0%,0%);stroke-opacity:1;stroke-miterlimit:10;" d="M 246.34375 124.875 L 243.035156 114.789062 "/>
<path style="fill:none;stroke-width:1.2;stroke-linecap:butt;stroke-linejoin:miter;stroke:rgb(100%,0%,0%);stroke-opacity:1;stroke-miterlimit:10;" d="M 243.035156 114.789062 L 239.722656 104.703125 "/>
<path style="fill:none;stroke-width:1.2;stroke-linecap:butt;stroke-linejoin:miter;stroke:rgb(0%,0%,0%);stroke-opacity:1;stroke-miterlimit:10;" d="M 241.597656 126.433594 L 238.285156 116.347656 "/>
<path style="fill:none;stroke-width:1.2;stroke-linecap:butt;stroke-linejoin:miter;stroke:rgb(100%,0%,0%);stroke-opacity:1;stroke-miterlimit:10;" d="M 238.285156 116.347656 L 234.976562 106.257812 "/>
<path style="fill:none;stroke-width:1.2;stroke-linecap:butt;stroke-linejoin:miter;stroke:rgb(0%,0%,0%);stroke-opacity:1;stroke-miterlimit:10;" d="M 243.96875 125.652344 L 254.359375 127.832031 "/>
<path style="fill:none;stroke-width:1.2;stroke-linecap:butt;stroke-linejoin:miter;stroke:rgb(100%,0%,0%);stroke-opacity:1;stroke-miterlimit:10;" d="M 254.359375 127.832031 L 264.75 130.007812 "/>
<path style=" stroke:none;fill-rule:nonzero;fill:rgb(100%,100%,100%);fill-opacity:1;" d="M 229.351562 99.980469 L 237.351562 99.980469 L 237.351562 110.980469 L 229.351562 110.980469 Z M 229.351562 99.980469 "/>
<g style="fill:rgb(100%,0%,0%);fill-opacity:1;">
  <use xlink:href="#glyph0-1" x="229.351562" y="108.643555"/>
</g>
<path style=" stroke:none;fill-rule:nonzero;fill:rgb(100%,100%,100%);fill-opacity:1;" d="M 259.75 122.507812 L 270.75 122.507812 L 270.75 137.507812 L 259.75 137.507812 Z M 259.75 122.507812 "/>
<g style="fill:rgb(100%,0%,0%);fill-opacity:1;">
  <use xlink:href="#glyph0-1" x="259.75" y="134.609375"/>
</g>
<g style="fill:rgb(100%,0%,0%);fill-opacity:1;">
  <use xlink:href="#glyph1-1" x="267.091797" y="129.726562"/>
</g>
<path style="fill:none;stroke-width:1.2;stroke-linecap:butt;stroke-linejoin:miter;stroke:rgb(0%,0%,100%);stroke-opacity:1;stroke-miterlimit:10;" d="M 124.988281 175.871094 L 114.597656 173.695312 "/>
<path style="fill:none;stroke-width:1.2;stroke-linecap:butt;stroke-linejoin:miter;stroke:rgb(0%,0%,0%);stroke-opacity:1;stroke-miterlimit:10;" d="M 114.597656 173.695312 L 104.210938 171.515625 "/>
<path style=" stroke:none;fill-rule:nonzero;fill:rgb(100%,100%,100%);fill-opacity:1;" d="M 117.988281 170.371094 L 131.988281 170.371094 L 131.988281 181.371094 L 117.988281 181.371094 Z M 117.988281 170.371094 "/>
<g style="fill:rgb(0%,0%,100%);fill-opacity:1;">
  <use xlink:href="#glyph0-2" x="117.988281" y="179.03418"/>
  <use xlink:href="#glyph0-3" x="124.96582" y="179.03418"/>
</g>
<path style=" stroke:none;fill-rule:nonzero;fill:rgb(0%,0%,0%);fill-opacity:1;" d="M 97.589844 151.34375 L 100.648438 172.683594 L 107.769531 170.347656 Z M 97.589844 151.34375 "/>
<path style="fill:none;stroke-width:1.2;stroke-linecap:butt;stroke-linejoin:miter;stroke:rgb(0%,0%,0%);stroke-opacity:1;stroke-miterlimit:10;" d="M 97.589844 151.34375 L 76.808594 146.992188 "/>
<path style="fill:none;stroke-width:1.2;stroke-linecap:butt;stroke-linejoin:miter;stroke:rgb(0%,0%,0%);stroke-opacity:1;stroke-miterlimit:10;" d="M 97.589844 151.34375 L 104.667969 143.433594 "/>
<path style="fill:none;stroke-width:1.2;stroke-linecap:butt;stroke-linejoin:miter;stroke:rgb(100%,0%,0%);stroke-opacity:1;stroke-miterlimit:10;" d="M 104.667969 143.433594 L 111.75 135.523438 "/>
<path style="fill:none;stroke-width:1.2;stroke-linecap:butt;stroke-linejoin:miter;stroke:rgb(0%,0%,0%);stroke-opacity:1;stroke-miterlimit:10;" d="M 76.808594 146.992188 L 70.191406 126.816406 "/>
<path style="fill:none;stroke-width:1.2;stroke-linecap:butt;stroke-linejoin:miter;stroke:rgb(0%,0%,0%);stroke-opacity:1;stroke-miterlimit:10;" d="M 71.402344 146.53125 L 66.105469 130.394531 "/>
<path style="fill:none;stroke-width:1.2;stroke-linecap:butt;stroke-linejoin:miter;stroke:rgb(0%,0%,0%);stroke-opacity:1;stroke-miterlimit:10;" d="M 62.648438 162.808594 L 76.808594 146.992188 "/>
<path style="fill:none;stroke-width:1.2;stroke-linecap:butt;stroke-linejoin:miter;stroke:rgb(0%,0%,0%);stroke-opacity:1;stroke-miterlimit:10;" d="M 70.191406 126.816406 L 49.410156 122.464844 "/>
<path style="fill:none;stroke-width:1.2;stroke-linecap:butt;stroke-linejoin:miter;stroke:rgb(0%,0%,0%);stroke-opacity:1;stroke-miterlimit:10;" d="M 49.410156 122.464844 L 35.25 138.285156 "/>
<path style="fill:none;stroke-width:1.2;stroke-linecap:butt;stroke-linejoin:miter;stroke:rgb(0%,0%,0%);stroke-opacity:1;stroke-miterlimit:10;" d="M 51.714844 127.378906 L 40.386719 140.035156 "/>
<path style="fill:none;stroke-width:1.2;stroke-linecap:butt;stroke-linejoin:miter;stroke:rgb(0%,0%,0%);stroke-opacity:1;stroke-miterlimit:10;" d="M 49.410156 122.464844 L 46.101562 112.378906 "/>
<path style="fill:none;stroke-width:1.2;stroke-linecap:butt;stroke-linejoin:miter;stroke:rgb(0%,80%,0%);stroke-opacity:1;stroke-miterlimit:10;" d="M 46.101562 112.378906 L 42.789062 102.292969 "/>
<path style="fill:none;stroke-width:1.2;stroke-linecap:butt;stroke-linejoin:miter;stroke:rgb(0%,0%,0%);stroke-opacity:1;stroke-miterlimit:10;" d="M 35.25 138.285156 L 41.871094 158.457031 "/>
<path style="fill:none;stroke-width:1.2;stroke-linecap:butt;stroke-linejoin:miter;stroke:rgb(0%,0%,0%);stroke-opacity:1;stroke-miterlimit:10;" d="M 41.871094 158.457031 L 62.648438 162.808594 "/>
<path style="fill:none;stroke-width:1.2;stroke-linecap:butt;stroke-linejoin:miter;stroke:rgb(0%,0%,0%);stroke-opacity:1;stroke-miterlimit:10;" d="M 44.972656 154.003906 L 61.597656 157.484375 "/>
<path style=" stroke:none;fill-rule:nonzero;fill:rgb(100%,100%,100%);fill-opacity:1;" d="M 32.789062 96.792969 L 42.789062 96.792969 L 42.789062 107.792969 L 32.789062 107.792969 Z M 32.789062 96.792969 "/>
<g style="fill:rgb(0%,80%,0%);fill-opacity:1;">
  <use xlink:href="#glyph0-4" x="32.789062" y="105.456055"/>
  <use xlink:href="#glyph0-5" x="39.302734" y="105.456055"/>
</g>
<path style=" stroke:none;fill-rule:nonzero;fill:rgb(100%,100%,100%);fill-opacity:1;" d="M 104.75 130.023438 L 119.75 130.023438 L 119.75 141.023438 L 104.75 141.023438 Z M 104.75 130.023438 "/>
<g style="fill:rgb(100%,0%,0%);fill-opacity:1;">
  <use xlink:href="#glyph0-1" x="104.75" y="138.686523"/>
  <use xlink:href="#glyph0-3" x="112.091797" y="138.686523"/>
</g>
<path style=" stroke:none;fill-rule:nonzero;fill:rgb(100%,100%,100%);fill-opacity:1;" d="M 129.523438 80.636719 L 149.523438 80.636719 L 149.523438 95.636719 L 129.523438 95.636719 Z M 129.523438 80.636719 "/>
<g style="fill:rgb(0%,0%,0%);fill-opacity:1;">
  <use xlink:href="#glyph0-2" x="129.523438" y="92.738281"/>
  <use xlink:href="#glyph0-6" x="136.500977" y="92.738281"/>
</g>
<g style="fill:rgb(0%,0%,0%);fill-opacity:1;">
  <use xlink:href="#glyph1-2" x="142.216797" y="87.855469"/>
</g>
</g>
</svg>

<svg xmlns="http://www.w3.org/2000/svg" xmlns:xlink="http://www.w3.org/1999/xlink" width="300pt" height="300pt" viewBox="0 0 300 300"><defs><symbol overflow="visible"><path d="M.453 1.594v-7.938h4.5v7.938zm.5-.5h3.5v-6.938h-3.5zm0 0"/></symbol><symbol overflow="visible" id="a"><path d="M3.547-5.953c-.65 0-1.164.242-1.547.72-.375.48-.563 1.13-.563 1.952 0 .835.188 1.49.563 1.967.383.48.898.72 1.547.72.644 0 1.156-.24 1.53-.72.376-.476.564-1.132.564-1.968 0-.822-.187-1.474-.562-1.954-.375-.477-.887-.72-1.53-.72zm0-.734c.914 0 1.648.312 2.203.937.55.617.828 1.438.828 2.47 0 1.042-.277 1.87-.828 2.483-.555.617-1.29.922-2.203.922-.93 0-1.668-.305-2.22-.922C.774-1.41.5-2.237.5-3.28c0-1.033.273-1.853.828-2.47.55-.625 1.29-.938 2.22-.938zm0 0"/></symbol><symbol overflow="visible" id="c"><path d="M.89-6.563H2.08l2.906 5.485v-5.484h.86V0H4.656L1.75-5.484V0H.89zm0 0"/></symbol><symbol overflow="visible" id="d"><path d="M.89-6.563h.876v2.688H5v-2.688h.89V0H5v-3.125H1.766V0H.89zm0 0"/></symbol><symbol overflow="visible" id="e"><path d="M5.797-6.063v.938c-.305-.27-.625-.473-.97-.61-.335-.144-.686-.218-1.06-.218-.75 0-1.33.23-1.736.687-.397.46-.592 1.12-.592 1.985 0 .866.195 1.526.593 1.983.408.46.986.688 1.736.688.375 0 .726-.066 1.062-.203.344-.132.664-.343.97-.625V-.5c-.314.21-.642.367-.986.47-.343.1-.714.155-1.11.155-.99 0-1.772-.3-2.343-.906C.784-1.396.5-2.228.5-3.28c0-1.052.285-1.88.86-2.486.57-.613 1.35-.92 2.343-.92.395-.002.766.053 1.11.155.35.104.68.26.984.468zm0 0"/></symbol><symbol overflow="visible" id="f"><path d="M.844-6.844h.812V0H.844zm0 0"/></symbol><symbol overflow="visible" id="g"><path d="M3.078-2.47c-.648 0-1.1.075-1.36.22-.25.148-.374.402-.374.766 0 .28.093.51.28.687.196.168.458.25.782.25.446 0 .805-.156 1.078-.47.27-.32.407-.75.407-1.28v-.172zm1.625-.342V0H3.89v-.75c-.187.305-.42.527-.703.672-.273.133-.605.203-1 .203-.5 0-.902-.14-1.203-.422-.293-.28-.437-.66-.437-1.14 0-.55.18-.97.547-1.25.375-.282.926-.422 1.656-.422h1.14v-.078c0-.374-.124-.66-.374-.86-.243-.206-.586-.31-1.032-.31-.28 0-.558.038-.828.108-.26.063-.51.164-.75.297v-.75c.29-.113.578-.195.86-.25.28-.063.55-.094.812-.094.707 0 1.238.188 1.594.563.35.367.53.92.53 1.671zm0 0"/></symbol><symbol overflow="visible"><path d="M.406 1.422V-5.64h4V1.42zM.844.97h3.11v-6.157H.843zm0 0"/></symbol><symbol overflow="visible" id="b"><path d="M.39-2.516H2.5v.64H.39zm0 0"/></symbol><symbol overflow="visible" id="h"><path d="M3.688-5.016v2.172h2.17v.672H3.69V0H3.03v-2.172H.845v-.672H3.03v-2.172zm0 0"/></symbol></defs><g><path fill="#fff" d="M0 0h300v300H0z"/><path d="M131.61 196.043m-2.36 1.852l.777.7m-3.136 1.155l1.555 1.39m-3.914.465l2.333 2.086m-4.687-.233l3.105 2.78m-5.464-.924l3.883 3.476m-6.243-1.626l4.66 4.172m-7.02-2.316l5.438 4.867m-5.88-4.524l5.587 4.996" stroke="#000" stroke-miterlimit="10" fill="none"/><path d="M131.61 196.043l20.78 4.352M131.61 196.043l-3.31-10.086" stroke-width="1.2" stroke="#000" stroke-miterlimit="10" fill="none"/><path d="M128.3 185.957l-3.312-10.086" stroke-width="1.2" stroke="#00f" stroke-miterlimit="10" fill="none"/><path d="M152.39 200.395l14.16-15.817M166.55 184.578l20.778 4.352M169.652 180.125l16.625 3.48M159.93 164.406l6.62 20.172M187.328 188.93l14.16-15.82M201.488 173.11l-6.617-20.173M196.082 172.652l-5.297-16.14M194.87 152.938l-20.78-4.352M194.87 152.938l7.08-7.91" stroke-width="1.2" stroke="#000" stroke-miterlimit="10" fill="none"/><path d="M201.95 145.027l7.08-7.906" stroke-width="1.2" stroke="#f00" stroke-miterlimit="10" fill="none"/><path d="M174.09 148.586l-14.16 15.82M176.395 153.5l-11.33 12.656" stroke-width="1.2" stroke="#000" stroke-miterlimit="10" fill="none"/><path d="M209.03 137.12l10.388 2.177" stroke-width="1.2" stroke="#f00" stroke-miterlimit="10" fill="none"/><path d="M219.418 139.297l10.39 2.176" stroke-width="1.2" stroke="#000" stroke-miterlimit="10" fill="none"/><path d="M205.03 131.62h8v11h-8zm0 0" fill="#fff"/><use xlink:href="#a" x="205.031" y="140.284" fill="#f00"/><path d="M229.81 141.473l14.16-15.82M246.344 124.875l-3.31-10.086" stroke-width="1.2" stroke="#000" stroke-miterlimit="10" fill="none"/><path d="M243.035 114.79l-3.312-10.087" stroke-width="1.2" stroke="#f00" stroke-miterlimit="10" fill="none"/><path d="M241.598 126.434l-3.313-10.086" stroke-width="1.2" stroke="#000" stroke-miterlimit="10" fill="none"/><path d="M238.285 116.348l-3.308-10.09" stroke-width="1.2" stroke="#f00" stroke-miterlimit="10" fill="none"/><path d="M243.97 125.652l10.39 2.18" stroke-width="1.2" stroke="#000" stroke-miterlimit="10" fill="none"/><path d="M254.36 127.832l10.39 2.176" stroke-width="1.2" stroke="#f00" stroke-miterlimit="10" fill="none"/><path d="M229.352 99.98h8v11h-8zm0 0" fill="#fff"/><use xlink:href="#a" x="229.352" y="108.644" fill="#f00"/><path d="M259.75 122.508h11v15h-11zm0 0" fill="#fff"/><use xlink:href="#a" x="259.75" y="134.609" fill="#f00"/><use xlink:href="#b" x="267.092" y="129.727" fill="#f00"/><path d="M124.988 175.87l-10.39-2.175" stroke-width="1.2" stroke="#00f" stroke-miterlimit="10" fill="none"/><path d="M114.598 173.695l-10.387-2.18" stroke-width="1.2" stroke="#000" stroke-miterlimit="10" fill="none"/><path d="M117.988 170.37h14v11h-14zm0 0" fill="#fff"/><g fill="#00f"><use xlink:href="#c" x="117.988" y="179.034"/><use xlink:href="#d" x="124.966" y="179.034"/></g><path d="M97.59 151.344l3.058 21.34 7.122-2.336zm0 0"/><path d="M97.59 151.344l-20.78-4.352M97.59 151.344l7.078-7.91" stroke-width="1.2" stroke="#000" stroke-miterlimit="10" fill="none"/><path d="M104.668 143.434l7.082-7.91" stroke-width="1.2" stroke="#f00" stroke-miterlimit="10" fill="none"/><path d="M76.81 146.992l-6.62-20.176M71.402 146.53l-5.297-16.135M62.648 162.81l14.16-15.818M70.19 126.816l-20.78-4.35M49.41 122.465l-14.16 15.82M51.715 127.38l-11.328 12.655M49.41 122.465l-3.308-10.086" stroke-width="1.2" stroke="#000" stroke-miterlimit="10" fill="none"/><path d="M46.102 112.38l-3.313-10.087" stroke-width="1.2" stroke="#0c0" stroke-miterlimit="10" fill="none"/><path d="M35.25 138.285l6.62 20.172M41.87 158.457l20.778 4.352M44.973 154.004l16.625 3.48" stroke-width="1.2" stroke="#000" stroke-miterlimit="10" fill="none"/><path d="M32.79 96.793h10v11h-10zm0 0" fill="#fff"/><g fill="#0c0"><use xlink:href="#e" x="32.789" y="105.456"/><use xlink:href="#f" x="39.303" y="105.456"/></g><path d="M104.75 130.023h15v11h-15zm0 0" fill="#fff"/><g fill="#f00"><use xlink:href="#a" x="104.75" y="138.687"/><use xlink:href="#d" x="112.092" y="138.687"/></g><path d="M129.523 80.637h20v15h-20zm0 0" fill="#fff"/><use xlink:href="#c" x="129.523" y="92.738"/><use xlink:href="#g" x="136.501" y="92.738"/><use xlink:href="#h" x="142.217" y="87.855"/></g></svg>
